svg/color/btc++.svg

<?xml version="1.0" encoding="UTF-8" ?>
<!DOCTYPE svg PUBLIC "-//W3C//DTD SVG 1.1//EN" "http://www.w3.org/Graphics/SVG/1.1/DTD/svg11.dtd">
<svg width="250pt" height="250pt" viewBox="0 0 250 250" version="1.1" xmlns="http://www.w3.org/2000/svg">
<g id="#ffffffff">
<path fill="#ffffff" opacity="1.00" d=" M 0.00 0.00 L 117.56 0.00 C 111.29 0.52 105.05 1.45 98.90 2.78 C 77.95 7.13 58.29 17.19 42.24 31.29 C 17.41 52.93 2.15 84.78 0.00 117.58 L 0.00 0.00 Z" />
<path fill="#ffffff" opacity="1.00" d=" M 132.43 0.00 L 250.00 0.00 L 250.00 116.62 C 248.52 100.91 244.79 85.26 237.69 71.10 C 229.57 53.45 216.84 38.06 201.55 26.14 C 181.85 10.64 157.34 1.80 132.43 0.00 Z" />
<path fill="#ffffff" opacity="1.00" d=" M 77.38 39.69 C 107.82 22.45 147.54 23.39 177.00 42.33 C 196.19 54.19 210.46 73.06 217.85 94.28 C 223.05 111.09 224.20 129.30 220.34 146.52 C 215.50 167.87 203.22 187.39 186.23 201.18 C 181.81 204.74 176.92 207.65 172.20 210.80 C 167.29 213.00 162.41 215.28 157.36 217.17 C 127.88 227.46 93.45 223.01 68.14 204.48 C 44.96 188.00 29.76 161.03 27.50 132.69 C 26.80 119.80 27.98 106.76 32.20 94.51 C 39.72 71.45 56.15 51.45 77.38 39.69 M 103.65 63.89 C 103.53 69.78 103.66 75.67 103.62 81.56 C 96.37 81.65 89.11 81.50 81.86 81.58 C 81.54 81.90 80.89 82.54 80.57 82.86 C 80.47 86.48 80.57 90.09 80.57 93.71 C 84.47 93.91 88.53 93.18 92.25 94.64 C 94.38 95.40 95.56 97.77 95.43 99.94 C 95.47 115.98 95.43 132.01 95.45 148.05 C 95.55 149.90 94.85 151.63 94.31 153.37 C 90.51 154.09 86.66 154.30 82.82 153.68 C 82.18 158.28 81.03 162.82 81.11 167.50 C 88.41 167.56 95.72 167.38 103.02 167.61 L 103.54 168.27 C 103.75 174.33 103.56 180.39 103.60 186.45 C 107.34 186.49 111.08 186.46 114.81 186.51 C 115.35 180.22 114.98 173.90 115.20 167.60 C 118.00 167.67 120.80 167.70 123.60 167.73 C 124.73 173.92 124.05 180.23 124.24 186.49 C 127.97 186.47 131.71 186.50 135.45 186.42 C 135.44 180.15 135.43 173.88 135.45 167.61 C 145.42 167.01 156.81 165.76 164.03 158.02 C 170.04 151.67 170.58 142.17 169.28 133.97 C 167.72 126.57 160.90 122.14 154.10 120.12 C 158.26 117.31 162.34 113.31 162.70 108.02 C 162.87 102.84 163.54 97.13 160.40 92.63 C 155.03 84.64 144.67 82.23 135.60 82.18 C 135.29 75.93 135.46 69.67 135.49 63.41 C 131.85 62.41 128.05 62.67 124.32 62.73 C 124.14 68.90 124.28 75.07 124.21 81.23 C 121.18 81.29 118.15 81.31 115.11 81.31 C 115.08 75.10 115.33 68.88 114.69 62.69 C 111.09 63.27 106.57 61.37 103.65 63.89 M 186.48 109.58 C 186.33 113.46 186.39 117.35 186.35 121.24 C 182.49 121.27 178.63 121.19 174.78 121.37 C 174.73 123.77 174.82 126.19 175.20 128.57 C 178.92 128.64 182.64 128.59 186.37 128.63 C 186.39 132.55 186.31 136.48 186.52 140.40 C 189.11 140.37 191.96 141.11 194.37 139.96 C 194.57 136.18 194.41 132.39 194.44 128.61 C 198.13 128.61 201.83 128.63 205.53 128.60 C 206.24 126.24 206.46 123.78 205.83 121.37 C 202.05 121.16 198.25 121.31 194.46 121.21 C 194.40 117.49 194.58 113.77 194.37 110.06 C 192.00 108.81 189.07 109.67 186.48 109.58 M 55.31 109.62 C 55.18 113.48 55.24 117.35 55.20 121.22 C 51.31 121.26 47.43 121.23 43.54 121.32 C 43.53 123.72 43.54 126.13 43.60 128.53 C 47.47 128.65 51.34 128.60 55.21 128.65 C 55.25 132.55 55.17 136.44 55.29 140.34 C 57.67 140.54 60.06 140.57 62.44 140.60 C 63.84 136.76 63.24 132.65 63.32 128.66 C 67.07 128.56 70.82 128.68 74.57 128.53 C 74.66 126.15 74.66 123.76 74.58 121.38 C 70.84 121.17 67.10 121.28 63.37 121.23 C 63.21 117.30 63.86 113.22 62.46 109.45 C 60.07 109.43 57.69 109.44 55.31 109.62 Z" />
<path fill="#ffffff" opacity="1.00" d=" M 115.35 94.70 C 122.89 94.75 131.18 93.78 137.87 98.01 C 141.98 100.70 142.63 106.50 140.77 110.70 C 138.45 115.12 133.12 116.08 128.71 117.11 C 124.49 117.75 120.19 117.48 115.94 117.47 L 115.36 116.84 C 115.26 109.46 115.36 102.08 115.35 94.70 Z" />
<path fill="#ffffff" opacity="1.00" d=" M 115.35 128.77 C 123.54 128.70 132.05 128.44 139.85 131.32 C 145.31 133.19 149.33 139.96 146.40 145.40 C 144.50 150.57 138.45 151.90 133.74 153.30 C 127.63 153.70 121.43 154.85 115.32 153.75 C 115.35 145.42 115.31 137.10 115.35 128.77 Z" />
<path fill="#ffffff" opacity="1.00" d=" M 231.08 191.06 C 242.24 173.53 248.52 153.10 250.00 132.41 L 250.00 250.00 L 133.40 250.00 C 150.56 248.54 167.53 243.97 182.74 235.83 C 202.57 225.71 219.31 209.91 231.08 191.06 Z" />
<path fill="#ffffff" opacity="1.00" d=" M 0.00 133.41 C 0.59 138.70 1.46 143.96 2.47 149.19 C 8.09 179.39 25.77 207.01 50.36 225.32 C 63.72 235.07 78.83 242.36 94.88 246.37 C 101.67 248.18 108.65 249.18 115.62 250.00 L 0.00 250.00 L 0.00 133.41 Z" />
</g>
<g id="#a10bcaff">
<path fill="#a10bca" opacity="1.00" d=" M 117.56 0.00 L 132.43 0.00 C 157.34 1.80 181.85 10.64 201.55 26.14 C 193.70 32.02 185.27 37.08 177.00 42.33 C 147.54 23.39 107.82 22.45 77.38 39.69 C 82.35 26.21 91.31 14.81 98.90 2.78 C 105.05 1.45 111.29 0.52 117.56 0.00 Z" />
<path fill="#a10bca" opacity="1.00" d=" M 2.47 149.19 C 11.74 145.18 19.52 138.73 27.50 132.69 C 29.76 161.03 44.96 188.00 68.14 204.48 C 62.76 211.82 58.27 220.34 50.36 225.32 C 25.77 207.01 8.09 179.39 2.47 149.19 Z" />
</g>
<g id="#d9099cff">
<path fill="#d9099c" opacity="1.00" d=" M 42.24 31.29 C 58.29 17.19 77.95 7.13 98.90 2.78 C 91.31 14.81 82.35 26.21 77.38 39.69 C 56.15 51.45 39.72 71.45 32.20 94.51 C 27.98 106.76 26.80 119.80 27.50 132.69 C 19.52 138.73 11.74 145.18 2.47 149.19 C 1.46 143.96 0.59 138.70 0.00 133.41 L 0.00 117.58 C 2.15 84.78 17.41 52.93 42.24 31.29 Z" />
</g>
<g id="#6d42ecff">
<path fill="#6d42ec" opacity="1.00" d=" M 201.55 26.14 C 216.84 38.06 229.57 53.45 237.69 71.10 C 229.91 77.76 224.02 86.19 217.85 94.28 C 210.46 73.06 196.19 54.19 177.00 42.33 C 185.27 37.08 193.70 32.02 201.55 26.14 Z" />
<path fill="#6d42ec" opacity="1.00" d=" M 50.36 225.32 C 58.27 220.34 62.76 211.82 68.14 204.48 C 93.45 223.01 127.88 227.46 157.36 217.17 C 162.41 215.28 167.29 213.00 172.20 210.80 C 169.83 214.77 166.91 218.41 163.28 221.30 C 150.23 232.47 133.23 237.18 116.83 240.88 C 109.41 242.29 102.28 244.89 94.88 246.37 C 78.83 242.36 63.72 235.07 50.36 225.32 Z" />
</g>
<g id="#000000ff">
<path fill="#000000" opacity="1.00" d=" M 103.65 63.89 C 106.57 61.37 111.09 63.27 114.69 62.69 C 115.33 68.88 115.08 75.10 115.11 81.31 C 118.15 81.31 121.18 81.29 124.21 81.23 C 124.28 75.07 124.14 68.90 124.32 62.73 C 128.05 62.67 131.85 62.41 135.49 63.41 C 135.46 69.67 135.29 75.93 135.60 82.18 C 144.67 82.23 155.03 84.64 160.40 92.63 C 163.54 97.13 162.87 102.84 162.70 108.02 C 162.34 113.31 158.26 117.31 154.10 120.12 C 160.90 122.14 167.72 126.57 169.28 133.97 C 170.58 142.17 170.04 151.67 164.03 158.02 C 156.81 165.76 145.42 167.01 135.45 167.61 C 135.43 173.88 135.44 180.15 135.45 186.42 C 131.71 186.50 127.97 186.47 124.24 186.49 C 124.05 180.23 124.73 173.92 123.60 167.73 C 120.80 167.70 118.00 167.67 115.20 167.60 C 114.98 173.90 115.35 180.22 114.81 186.51 C 111.08 186.46 107.34 186.49 103.60 186.45 C 103.56 180.39 103.75 174.33 103.54 168.27 L 103.02 167.61 C 95.72 167.38 88.41 167.56 81.11 167.50 C 81.03 162.82 82.18 158.28 82.82 153.68 C 86.66 154.30 90.51 154.09 94.31 153.37 C 94.85 151.63 95.55 149.90 95.45 148.05 C 95.43 132.01 95.47 115.98 95.43 99.94 C 95.56 97.77 94.38 95.40 92.25 94.64 C 88.53 93.18 84.47 93.91 80.57 93.71 C 80.57 90.09 80.47 86.48 80.57 82.86 C 80.89 82.54 81.54 81.90 81.86 81.58 C 89.11 81.50 96.37 81.65 103.62 81.56 C 103.66 75.67 103.53 69.78 103.65 63.89 M 115.35 94.70 C 115.36 102.08 115.26 109.46 115.36 116.84 L 115.94 117.47 C 120.19 117.48 124.49 117.75 128.71 117.11 C 133.12 116.08 138.45 115.12 140.77 110.70 C 142.63 106.50 141.98 100.70 137.87 98.01 C 131.18 93.78 122.89 94.75 115.35 94.70 M 115.35 128.77 C 115.31 137.10 115.35 145.42 115.32 153.75 C 121.43 154.85 127.63 153.70 133.74 153.30 C 138.45 151.90 144.50 150.57 146.40 145.40 C 149.33 139.96 145.31 133.19 139.85 131.32 C 132.05 128.44 123.54 128.70 115.35 128.77 Z" />
<path fill="#000000" opacity="1.00" d=" M 186.48 109.58 C 189.07 109.67 192.00 108.81 194.37 110.06 C 194.58 113.77 194.40 117.49 194.46 121.21 C 198.25 121.31 202.05 121.16 205.83 121.37 C 206.46 123.78 206.24 126.24 205.53 128.60 C 201.83 128.63 198.13 128.61 194.44 128.61 C 194.41 132.39 194.57 136.18 194.37 139.96 C 191.96 141.11 189.11 140.37 186.52 140.40 C 186.31 136.48 186.39 132.55 186.37 128.63 C 182.64 128.59 178.92 128.64 175.20 128.57 C 174.82 126.19 174.73 123.77 174.78 121.37 C 178.63 121.19 182.49 121.27 186.35 121.24 C 186.39 117.35 186.33 113.46 186.48 109.58 Z" />
<path fill="#000000" opacity="1.00" d=" M 55.31 109.62 C 57.69 109.44 60.07 109.43 62.46 109.45 C 63.86 113.22 63.21 117.30 63.37 121.23 C 67.10 121.28 70.84 121.17 74.58 121.38 C 74.66 123.76 74.66 126.15 74.57 128.53 C 70.82 128.68 67.07 128.56 63.32 128.66 C 63.24 132.65 63.84 136.76 62.44 140.60 C 60.06 140.57 57.67 140.54 55.29 140.34 C 55.17 136.44 55.25 132.55 55.21 128.65 C 51.34 128.60 47.47 128.65 43.60 128.53 C 43.54 126.13 43.53 123.72 43.54 121.32 C 47.43 121.23 51.31 121.26 55.20 121.22 C 55.24 117.35 55.18 113.48 55.31 109.62 Z" />
</g>
<g id="#2acdffff">
<path fill="#2acdff" opacity="1.00" d=" M 217.85 94.28 C 224.02 86.19 229.91 77.76 237.69 71.10 C 244.79 85.26 248.52 100.91 250.00 116.62 L 250.00 132.41 C 248.52 153.10 242.24 173.53 231.08 191.06 C 219.31 209.91 202.57 225.71 182.74 235.83 C 167.53 243.97 150.56 248.54 133.40 250.00 L 115.62 250.00 C 108.65 249.18 101.67 248.18 94.88 246.37 C 102.28 244.89 109.41 242.29 116.83 240.88 C 133.23 237.18 150.23 232.47 163.28 221.30 C 166.91 218.41 169.83 214.77 172.20 210.80 C 176.92 207.65 181.81 204.74 186.23 201.18 C 203.22 187.39 215.50 167.87 220.34 146.52 C 224.20 129.30 223.05 111.09 217.85 94.28 Z" />
</g>
</svg>

<?xml version="1.0" encoding="utf-8"?>
<!-- Generator: Adobe Illustrator 26.0.3, SVG Export Plug-In . SVG Version: 6.00 Build 0)  -->
<svg version="1.1" id="Layer_1" xmlns="http://www.w3.org/2000/svg" xmlns:xlink="http://www.w3.org/1999/xlink" x="0px" y="0px"
	 viewBox="0 0 250 250" style="enable-background:new 0 0 250 250;" xml:space="preserve">
<style type="text/css">
	.st0{fill:#FFFFFF;}
	.st1{fill:#A10BCA;}
	.st2{fill:#D9099C;}
	.st3{fill:#6D42EC;}
	.st4{fill:#2ACDFF;}
</style>
<g id="_x23_ffffffff">
	<path class="st0" d="M77.4,39.7c30.4-17.2,70.2-16.3,99.6,2.6c19.2,11.9,33.5,30.7,40.9,51.9c5.2,16.8,6.3,35,2.5,52.2
		c-4.8,21.3-17.1,40.9-34.1,54.7c-4.4,3.6-9.3,6.5-14,9.6c-4.9,2.2-9.8,4.5-14.8,6.4c-29.5,10.3-63.9,5.8-89.2-12.7
		C45,188,29.8,161,27.5,132.7c-0.7-12.9,0.5-25.9,4.7-38.2C39.7,71.4,56.2,51.5,77.4,39.7 M103.7,63.9c-0.1,5.9,0,11.8,0,17.7
		c-7.2,0.1-14.5-0.1-21.8,0c-0.3,0.3-1,1-1.3,1.3c-0.1,3.6,0,7.2,0,10.8c3.9,0.2,8-0.5,11.7,0.9c2.1,0.8,3.3,3.1,3.2,5.3
		c0,16,0,32.1,0,48.1c0.1,1.8-0.6,3.6-1.1,5.3c-3.8,0.7-7.6,0.9-11.5,0.3c-0.6,4.6-1.8,9.1-1.7,13.8c7.3,0.1,14.6-0.1,21.9,0.1
		l0.5,0.7c0.2,6.1,0,12.1,0.1,18.2c3.7,0,7.5,0,11.2,0.1c0.5-6.3,0.2-12.6,0.4-18.9c2.8,0.1,5.6,0.1,8.4,0.1
		c1.1,6.2,0.5,12.5,0.6,18.8c3.7,0,7.5,0,11.2-0.1c0-6.3,0-12.5,0-18.8c10-0.6,21.4-1.9,28.6-9.6c6-6.4,6.6-15.9,5.2-24.1
		c-1.6-7.4-8.4-11.8-15.2-13.8c4.2-2.8,8.2-6.8,8.6-12.1c0.2-5.2,0.8-10.9-2.3-15.4c-5.4-8-15.7-10.4-24.8-10.4
		c-0.3-6.2-0.1-12.5-0.1-18.8c-3.6-1-7.4-0.7-11.2-0.7c-0.2,6.2,0,12.3-0.1,18.5c-3,0.1-6.1,0.1-9.1,0.1c0-6.2,0.2-12.4-0.4-18.6
		C111.1,63.3,106.6,61.4,103.7,63.9 M186.5,109.6c-0.1,3.9-0.1,7.8-0.1,11.7c-3.9,0-7.7,0-11.6,0.1c-0.1,2.4,0,4.8,0.4,7.2
		c3.7,0.1,7.4,0,11.2,0.1c0,3.9-0.1,7.8,0.2,11.8c2.6,0,5.4,0.7,7.8-0.4c0.2-3.8,0-7.6,0.1-11.4c3.7,0,7.4,0,11.1,0
		c0.7-2.4,0.9-4.8,0.3-7.2c-3.8-0.2-7.6-0.1-11.4-0.2c-0.1-3.7,0.1-7.4-0.1-11.2C192,108.8,189.1,109.7,186.5,109.6 M55.3,109.6
		c-0.1,3.9-0.1,7.7-0.1,11.6c-3.9,0-7.8,0-11.7,0.1c0,2.4,0,4.8,0.1,7.2c3.9,0.1,7.7,0.1,11.6,0.1c0,3.9,0,7.8,0.1,11.7
		c2.4,0.2,4.8,0.2,7.1,0.3c1.4-3.8,0.8-8,0.9-11.9c3.8-0.1,7.5,0,11.2-0.1c0.1-2.4,0.1-4.8,0-7.2c-3.7-0.2-7.5-0.1-11.2-0.1
		c-0.2-3.9,0.5-8-0.9-11.8C60.1,109.4,57.7,109.4,55.3,109.6z"/>
	<path class="st0" d="M115.3,94.7c7.5,0.1,15.8-0.9,22.5,3.3c4.1,2.7,4.8,8.5,2.9,12.7c-2.3,4.4-7.7,5.4-12.1,6.4
		c-4.2,0.6-8.5,0.4-12.8,0.4l-0.6-0.6C115.3,109.5,115.4,102.1,115.3,94.7z"/>
	<path class="st0" d="M115.3,128.8c8.2-0.1,16.7-0.3,24.5,2.6c5.5,1.9,9.5,8.6,6.5,14.1c-1.9,5.2-7.9,6.5-12.7,7.9
		c-6.1,0.4-12.3,1.6-18.4,0.4C115.3,145.4,115.3,137.1,115.3,128.8z"/>
</g>
<g id="_x23_a10bcaff">
	<path class="st1" d="M117.6,0h14.9c24.9,1.8,49.4,10.6,69.1,26.1c-7.9,5.9-16.3,10.9-24.6,16.2c-29.5-18.9-69.2-19.9-99.6-2.6
		c5-13.5,13.9-24.9,21.5-36.9C105.1,1.5,111.3,0.5,117.6,0z"/>
	<path class="st1" d="M2.5,149.2c9.3-4,17.1-10.5,25-16.5C29.8,161,45,188,68.1,204.5c-5.4,7.3-9.9,15.9-17.8,20.8
		C25.8,207,8.1,179.4,2.5,149.2z"/>
</g>
<g id="_x23_d9099cff">
	<path class="st2" d="M42.2,31.3c16-14.1,35.7-24.2,56.7-28.5c-7.6,12-16.6,23.4-21.5,36.9C56.2,51.5,39.7,71.4,32.2,94.5
		c-4.2,12.2-5.4,25.3-4.7,38.2c-8,6-15.8,12.5-25,16.5c-1-5.2-1.9-10.5-2.5-15.8v-15.8C2.2,84.8,17.4,52.9,42.2,31.3z"/>
</g>
<g id="_x23_6d42ecff">
	<path class="st3" d="M201.6,26.1c15.3,11.9,28,27.3,36.1,45c-7.8,6.7-13.7,15.1-19.8,23.2c-7.4-21.2-21.7-40.1-40.9-51.9
		C185.3,37.1,193.7,32,201.6,26.1z"/>
	<path class="st3" d="M50.4,225.3c7.9-5,12.4-13.5,17.8-20.8c25.3,18.5,59.7,23,89.2,12.7c5.1-1.9,9.9-4.2,14.8-6.4
		c-2.4,4-5.3,7.6-8.9,10.5c-13.1,11.2-30.1,15.9-46.4,19.6c-7.4,1.4-14.6,4-22,5.5C78.8,242.4,63.7,235.1,50.4,225.3z"/>
</g>
<g id="_x23_000000ff">
	<path d="M103.7,63.9c2.9-2.5,7.4-0.6,11-1.2c0.6,6.2,0.4,12.4,0.4,18.6c3,0,6.1,0,9.1-0.1c0.1-6.2-0.1-12.3,0.1-18.5
		c3.7-0.1,7.5-0.3,11.2,0.7c0,6.3-0.2,12.5,0.1,18.8c9.1,0.1,19.4,2.5,24.8,10.4c3.1,4.5,2.5,10.2,2.3,15.4
		c-0.4,5.3-4.4,9.3-8.6,12.1c6.8,2,13.6,6.4,15.2,13.8c1.3,8.2,0.8,17.7-5.2,24.1c-7.2,7.7-18.6,9-28.6,9.6c0,6.3,0,12.5,0,18.8
		c-3.7,0.1-7.5,0.1-11.2,0.1c-0.2-6.3,0.5-12.6-0.6-18.8c-2.8,0-5.6-0.1-8.4-0.1c-0.2,6.3,0.2,12.6-0.4,18.9c-3.7,0-7.5,0-11.2-0.1
		c0-6.1,0.2-12.1-0.1-18.2l-0.5-0.7c-7.3-0.2-14.6-0.1-21.9-0.1c-0.1-4.7,1.1-9.2,1.7-13.8c3.8,0.6,7.7,0.4,11.5-0.3
		c0.5-1.7,1.2-3.5,1.1-5.3c0-16,0-32.1,0-48.1c0.1-2.2-1.1-4.5-3.2-5.3c-3.7-1.5-7.8-0.7-11.7-0.9c0-3.6-0.1-7.2,0-10.8
		c0.3-0.3,1-1,1.3-1.3c7.2-0.1,14.5,0.1,21.8,0C103.7,75.7,103.5,69.8,103.7,63.9 M115.3,94.7c0,7.4-0.1,14.8,0,22.1l0.6,0.6
		c4.2,0,8.5,0.3,12.8-0.4c4.4-1,9.7-2,12.1-6.4c1.9-4.2,1.2-10-2.9-12.7C131.2,93.8,122.9,94.8,115.3,94.7 M115.3,128.8
		c0,8.3,0,16.6,0,25c6.1,1.1,12.3-0.1,18.4-0.4c4.7-1.4,10.8-2.7,12.7-7.9c2.9-5.4-1.1-12.2-6.5-14.1
		C132.1,128.4,123.5,128.7,115.3,128.8z"/>
	<path d="M186.5,109.6c2.6,0.1,5.5-0.8,7.9,0.5c0.2,3.7,0,7.4,0.1,11.2c3.8,0.1,7.6,0,11.4,0.2c0.6,2.4,0.4,4.9-0.3,7.2
		c-3.7,0-7.4,0-11.1,0c0,3.8,0.1,7.6-0.1,11.4c-2.4,1.1-5.3,0.4-7.8,0.4c-0.2-3.9-0.1-7.8-0.2-11.8c-3.7,0-7.4,0-11.2-0.1
		c-0.4-2.4-0.5-4.8-0.4-7.2c3.9-0.2,7.7-0.1,11.6-0.1C186.4,117.3,186.3,113.5,186.5,109.6z"/>
	<path d="M55.3,109.6c2.4-0.2,4.8-0.2,7.1-0.2c1.4,3.8,0.8,7.9,0.9,11.8c3.7,0,7.5-0.1,11.2,0.1c0.1,2.4,0.1,4.8,0,7.2
		c-3.8,0.1-7.5,0-11.2,0.1c-0.1,4,0.5,8.1-0.9,11.9c-2.4,0-4.8-0.1-7.1-0.3c-0.1-3.9,0-7.8-0.1-11.7c-3.9,0-7.7,0-11.6-0.1
		c-0.1-2.4-0.1-4.8-0.1-7.2c3.9-0.1,7.8-0.1,11.7-0.1C55.2,117.3,55.2,113.5,55.3,109.6z"/>
</g>
<g id="_x23_2acdffff">
	<path class="st4" d="M217.9,94.3c6.2-8.1,12.1-16.5,19.8-23.2c7.1,14.2,10.8,29.8,12.3,45.5v15.8c-1.5,20.7-7.8,41.1-18.9,58.6
		c-11.8,18.9-28.5,34.7-48.3,44.8c-15.2,8.1-32.2,12.7-49.3,14.2h-17.8c-7-0.8-14-1.8-20.7-3.6c7.4-1.5,14.5-4.1,22-5.5
		c16.4-3.7,33.4-8.4,46.4-19.6c3.6-2.9,6.6-6.5,8.9-10.5c4.7-3.2,9.6-6.1,14-9.6c17-13.8,29.3-33.3,34.1-54.7
		C224.2,129.3,223.1,111.1,217.9,94.3z"/>
</g>
</svg>
